src/main/resources/icons/MarkdownIcons/icons/editor_actions/Bold_dark.svg

<svg xmlns="http://www.w3.org/2000/svg" width="16" height="16" viewBox="0 0 16 16">
  <path fill="#AFB1B3" fill-rule="evenodd" d="M10.12,7.85 C10.7877209,7.37142857 11.255814,6.58571429 11.255814,5.85714286 C11.255814,4.24285714 9.85116279,3 8.30232558,3 L4,3 L4,13 L8.84613953,13 C10.2848372,13 11.6,11.7857143 11.6,10.2928571 C11.6,9.20714286 11.008,8.27857143 10.12,7.85 Z M6,5 L8,5 C8.55333333,5 9,5.44666667 9,6 C9,6.55333333 8.55333333,7 8,7 L6,7 L6,5 Z M8.45,11 L6,11 L6,9 L8.45,9 C9.031,9 9.5,9.44666667 9.5,10 C9.5,10.5533333 9.031,11 8.45,11 Z"/>
</svg>

<svg xmlns="http://www.w3.org/2000/svg" width="16" height="16" viewBox="0 0 16 16"><rect id="frame" width="16" height="16" fill="none"/><path fill="#AFB1B3" fill-rule="evenodd" d="M10.12 7.85c.668-.479 1.136-1.264 1.136-1.993C11.256 4.243 9.85 3 8.302 3H4v10h4.846c1.439 0 2.754-1.214 2.754-2.707 0-1.086-.592-2.014-1.48-2.443zM6 5h2c.553 0 1 .447 1 1 0 .553-.447 1-1 1H6V5zm2.45 6H6V9h2.45c.581 0 1.05.447 1.05 1 0 .553-.469 1-1.05 1z"/></svg>
